icons/Eclipse-Light.svg

<svg xmlns="http://www.w3.org/2000/svg" width="256" height="256" fill="none" viewBox="0 0 256 256"><rect width="256" height="256" fill="#F4F2ED" rx="60"/><path fill="#2C2255" d="M83.0442 153.434H52.3774C56.4379 167.363 63.9727 179.848 75.0039 190.879C92.59 208.469 113.737 217.249 138.465 217.249C143.409 217.249 148.198 216.881 152.85 216.18C171.477 213.368 187.784 204.947 201.757 190.879C212.859 179.852 220.447 167.363 224.539 153.434H212.094H193.896H83.0442Z"/><path fill="#2C2255" d="M66.1338 111.782H50.1137C49.5276 115.302 49.1283 118.896 48.947 122.581H67.9873H77.5386H215.405H227.989C227.806 118.896 227.407 115.302 226.815 111.782"/><path fill="#2C2255" d="M48.947 132.609C49.1283 136.295 49.5258 139.889 50.1137 143.407H66.7694H79.3939H214.281H226.819C227.409 139.889 227.812 136.295 227.995 132.609"/><path fill="#2C2255" d="M224.542 101.753C220.454 87.7855 212.864 75.2434 201.756 64.1335C187.82 50.1994 171.559 41.8367 152.993 39.0236C148.297 38.3111 143.46 37.9375 138.465 37.9375C113.736 37.9375 92.5878 46.672 75.0035 64.1335C63.9687 75.2434 56.4302 87.7855 52.3716 101.753"/><path fill="#F7941E" d="M43.6227 127.597C43.6227 80.3004 79.1448 41.0018 125.355 34.0897C124.209 34.0476 123.057 34 121.899 34C70.0422 34 28 75.9067 28 127.597C28 179.29 70.0403 221.193 121.899 221.193C123.061 221.193 124.213 221.15 125.363 221.106C79.1448 214.194 43.6227 174.896 43.6227 127.597Z"/><path fill="url(#paint0_linear_159_857)" d="M199.398 122.579C199.097 118.878 198.475 115.268 197.544 111.781H79.3939C78.4635 115.264 77.8389 118.876 77.5386 122.579H199.398Z"/><path fill="url(#paint1_linear_159_857)" d="M199.398 132.609H77.5403C77.8406 136.31 78.4615 139.918 79.3938 143.407H197.546C198.476 139.92 199.097 136.31 199.398 132.609Z"/><path fill="url(#paint2_linear_159_857)" d="M138.469 188.748C163.006 188.748 184.156 174.291 193.896 153.434H83.0425C92.7824 174.291 113.933 188.748 138.469 188.748Z"/><path fill="#fff" d="M68.509 132.608H77.4541H199.626H215.676H227.868C227.952 131.013 228 129.407 228 127.788C228 126.039 227.936 124.306 227.837 122.577H215.674H199.625H77.4522H67.8753H48.9467C48.8478 124.302 48.7837 126.039 48.7837 127.788C48.7837 129.407 48.8313 131.013 48.9156 132.608H68.509Z"/><path fill="#fff" d="M82.685 101.753H52.3699C51.3736 105.018 50.7307 108.368 50.1135 111.784H65.7271H79.022H197.482H214.258H226.249C225.63 108.372 224.834 105.022 223.839 101.753"/><path fill="#fff" d="M214.733 143.405H197.956H79.4983H66.839H50.1118C50.7125 146.817 51.3957 150.165 52.3756 153.434H83.1576H194.297H212.542H224.425C225.403 150.168 226.193 146.82 226.795 143.405H214.733Z"/><defs><linearGradient id="paint0_linear_159_857" x1="138.467" x2="138.467" y1="229.42" y2="94.558" gradientUnits="userSpaceOnUse"><stop offset=".303" stop-color="#473788"/><stop offset=".872" stop-color="#2C2255"/></linearGradient><linearGradient id="paint1_linear_159_857" x1="138.468" x2="138.468" y1="229.422" y2="94.56" gradientUnits="userSpaceOnUse"><stop offset=".303" stop-color="#473788"/><stop offset=".872" stop-color="#2C2255"/></linearGradient><linearGradient id="paint2_linear_159_857" x1="138.469" x2="138.469" y1="229.417" y2="94.564" gradientUnits="userSpaceOnUse"><stop offset=".303" stop-color="#473788"/><stop offset=".863" stop-color="#2C2255"/></linearGradient></defs></svg>

<svg xmlns="http://www.w3.org/2000/svg" width="256" height="256" fill="none" viewBox="0 0 256 256"><rect width="256" height="256" fill="#F4F2ED" rx="60"/><path fill="#2C2255" d="M83.04 153.43H52.38q6.09 20.9 22.62 37.45 26.38 26.38 63.47 26.37 7.4-.01 14.38-1.07 27.94-4.2 48.9-25.3 16.65-16.55 22.79-37.45zm-16.91-41.65H50.11a94 94 0 0 0-1.16 10.8h179.04a93 93 0 0 0-1.18-10.8M48.95 132.6q.28 5.54 1.16 10.8h176.71q.9-5.26 1.18-10.8m-3.46-30.85q-6.13-20.94-22.78-37.62-20.91-20.9-48.77-25.1a97 97 0 0 0-14.53-1.1q-37.08 0-63.46 26.2-16.54 16.67-22.63 37.62"/><path fill="#F7941E" d="M43.62 127.6c0-47.3 35.52-86.6 81.74-93.51q-1.72-.08-3.46-.09C70.04 34 28 75.9 28 127.6s42.04 93.6 93.9 93.6q1.74-.01 3.46-.1c-46.22-6.9-81.74-46.2-81.74-93.5"/><path fill="url(#a)" d="M199.4 122.58a61 61 0 0 0-1.86-10.8H79.4a61 61 0 0 0-1.85 10.8z"/><path fill="url(#b)" d="M199.4 132.6H77.54q.45 5.57 1.85 10.8h118.16a61 61 0 0 0 1.85-10.8"/><path fill="url(#c)" d="M138.47 188.75a61.2 61.2 0 0 0 55.43-35.32H83.04a61.2 61.2 0 0 0 55.43 35.32"/><path fill="#fff" d="M68.5 132.6h159.37a92 92 0 0 0-.03-10.02H48.95a91 91 0 0 0-.03 10.03zm14.19-30.85H52.37c-1 3.27-1.64 6.62-2.26 10.03h176.14a89 89 0 0 0-2.41-10.03m-9.11 41.65H50.11c.6 3.42 1.29 6.76 2.27 10.03h172.05a89 89 0 0 0 2.36-10.03z"/><defs><linearGradient id="a" x1="138.47" x2="138.47" y1="229.42" y2="94.56" gradientUnits="userSpaceOnUse"><stop offset=".3" stop-color="#473788"/><stop offset=".87" stop-color="#2C2255"/></linearGradient><linearGradient id="b" x1="138.47" x2="138.47" y1="229.42" y2="94.56" gradientUnits="userSpaceOnUse"><stop offset=".3" stop-color="#473788"/><stop offset=".87" stop-color="#2C2255"/></linearGradient><linearGradient id="c" x1="138.47" x2="138.47" y1="229.42" y2="94.56" gradientUnits="userSpaceOnUse"><stop offset=".3" stop-color="#473788"/><stop offset=".86" stop-color="#2C2255"/></linearGradient></defs></svg>
